(post@kulpanov.ru)
N0001 G00 X2385 Y1711 D0
N0002 G01 X25 Y17
N0003 M81 T0 G03 G41 X-49 Y-34 I-25 J-17
N0004 G02 I-173 J-121 X3 Y-237
N0005 G01 X-124 Y-213
N0006 G03 I168 J-71 X64 Y-221
N0007 G02 I-114 J-187 X105 Y-202
N0008 G01 X-11 Y-45
N0009 G03 I138 J-118 Y-236
N0010 G01 X8 Y-34
N0011 G02 I-184 J-31 X-180 Y-217
N0012 G01 X-86 Y-8
N0013 X-45 Y-15
N0014 X-30 Y-19
N0015 X-34 Y-38
N0016 X-49 Y-56
N0017 X-30 Y-22
N0018 X-45 Y-15
N0019 X-49 Y-8
N0020 X-22 Y4
N0021 X-37 Y7
N0022 X-30 Y15
N0023 X-296 Y191
N0024 X-52 Y34
N0025 X370 Y580
N0026 X-52 Y34
N0027 X-483 Y-760
N0028 X-52 Y-60
N0029 X-30 Y-22
N0030 X-30 Y-19
N0031 X-75 Y-15
N0032 X-45 Y4
N0033 X-34 Y11
N0034 X-82 Y52
N0035 X-41 Y22
N0036 X262 Y404
N0037 X-52 Y34
N0038 X-258 Y-404
N0039 X-75 Y45
N0040 X-37 Y30
N0041 X-19 Y22
N0042 X-11 Y15
N0043 X-26 Y52
N0044 X-8 Y22
N0045 Y22
N0046 X-4 Y15
N0047 X4 Y37
N0048 Y26
N0049 X15 Y37
N0050 X501 Y786
N0051 X-49 Y34
N0052 X-367 Y-572
N0053 X-49 Y30
N0054 X-82 Y49
N0055 X-228 Y150
N0056 X-26 Y26
N0057 X-19 Y30
N0058 X-11 Y45
N0059 X-4 Y37
N0060 X8 Y34
N0061 X41 Y97
N0062 X4 Y37
N0063 Y34
N0064 X-11 Y37
N0065 X-38 Y86
N0066 X-7 Y37
N0067 Y34
N0068 X15 Y60
N0069 X22 Y41
N0070 X34 Y34
N0071 X41 Y26
N0072 X41 Y15
N0073 X52 Y4
N0074 X60
N0075 X45 Y11
N0076 X30 Y19
N0077 X26 Y26
N0078 X26 Y41
N0079 X34 Y34
N0080 X41 Y22
N0081 X37 Y7
N0082 X37 Y4
N0083 X45 Y-11
N0084 X22 Y-8
N0085 X64 Y-37
N0086 X45 Y-11
N0087 X34 Y-4
N0088 X38 Y8
N0089 X34 Y15
N0090 X37 Y30
N0091 X38 Y49
N0092 X131 Y195
N0093 X34 Y34
N0094 X30 Y19
N0095 X41 Y19
N0096 X49 Y8
N0097 X38
N0098 X49 Y-11
N0099 X34 Y-19
N0100 X34 Y-34
N0101 X26 Y-41
N0102 X15 Y-45
N0103 X11 Y-60
N0104 X19 Y-41
N0105 X19 Y-30
N0106 X34 Y-34
N0107 X41 Y-30
N0108 X30 Y-22
N0109 X-266 Y-415
N0110 X52 Y-30
N0111 X266 Y415
N0112 X82 Y-52
N0113 X11 Y-4
N0114 X49 Y-8
N0115 X56 Y11
N0116 X71 Y19
N0117 X49
N0118 X49 Y-8
N0119 G02 I-82 J-194 X90 Y-73
N0120 M45
N0121 M83 T0 G03 X49 Y34 I25 J17
N0122 G01 G40 X-25 Y-17
N0123 G00 X-2315 Y314
N0124 G01 X-30 Y0
N0125 M81 T0 G03 G41 X60 Y0 I30 J0
N0126 G01 X4 Y703
N0127 X307
N0128 Y60
N0129 X-307
N0130 Y299
N0131 X307
N0132 Y60
N0133 X-307
N0134 X4 Y303
N0135 X303
N0136 Y60
N0137 X-303
N0138 Y703
N0139 X494 Y60
N0140 G02 I32 J-141 X176 Y-124
N0141 G01 X8 Y-86
N0142 X-329 Y-41
N0143 X7 Y-60
N0144 X326 Y41
N0145 X4 Y-41
N0146 X8 Y-34
N0147 X11 Y-22
N0148 X34 Y-34
N0149 X60 Y-34
N0150 G02 I-89 J-140 X60 Y-213
N0151 G01 X-30 Y-82
N0152 X-254 Y101
N0153 X-19 Y-56
N0154 X404 Y-157
N0155 X60 Y-37
N0156 X49 Y-41
N0157 G02 I-318 J-251 X78 Y-333
N0158 G02 I-321 J94 X-198 Y-217
N0159 G01 X-397 Y-157
N0160 X19 Y-56
N0161 X273 Y109
N0162 X30 Y-105
N0163 G02 I-187 J-66 X4 Y-120
N0164 G01 X-22 Y-41
N0165 X-34 Y-34
N0166 G03 I70 J-177 X-97 Y-86
N0167 G01 X-11 Y-30
N0168 X-8 Y-52
N0169 X-352 Y38
N0170 X-8 Y-60
N0171 X352 Y-37
N0172 X-7 Y-71
N0173 G02 I-146 J7 X-161 Y-138
N0174 G01 X-535 Y64
N0175 M45
N0176 M83 T0 G03 X-60 Y0 I-30 J0
N0177 G01 G40 X30 Y0
N0178 G00 X1657 Y960
N0179 G01 X-27 Y14
N0180 M81 T0 G03 G41 X54 Y-27 I27 J-14
N0181 G01 X22 Y45
N0182 X15 Y45
N0183 X15 Y49
N0184 X-4 Y22
N0185 X-49 Y4
N0186 G03 I11 J-128 X-94 Y-202
N0187 G01 X37 Y-15
N0188 X26 Y11
N0189 X30 Y41
N0190 M45
N0191 M83 T0 G03 X-54 Y27 I-27 J14
N0192 G01 G40 X27 Y-14
N0193 G00 X6 Y536
N0194 G01 X-14 Y-27
N0195 M81 T0 G03 G41 X27 Y54 I14 J27
N0196 G01 X-15 Y8
N0197 X-8 Y8
N0198 X-8 Y15
N0199 X-4 Y11
N0200 X-4 Y8
N0201 Y7
N0202 X-4 Y8
N0203 X-4 Y11
N0204 X-7 Y7
N0205 X-8 Y11
N0206 X-4 Y7
N0207 X-7 Y11
N0208 X-8 Y8
N0209 X-8 Y11
N0210 X-11 Y8
N0211 X-8 Y4
N0212 X-8 Y8
N0213 X-8 Y4
N0214 X-4 Y4
N0215 X-11 Y8
N0216 X-7
N0217 X-11 Y4
N0218 X-11 Y-4
N0219 X-22 Y-11
N0220 X-4 Y-8
N0221 X-8 Y-7
N0222 X-7 Y-15
N0223 Y-60
N0224 X4 Y-11
N0225 Y-15
N0226 X4 Y-15
N0227 Y-15
N0228 X11 Y-45
N0229 Y-15
N0230 X11 Y-45
N0231 X4 Y-11
N0232 X4 Y-15
N0233 X8 Y-22
N0234 Y-11
N0235 X4 Y-8
N0236 X4 Y-11
N0237 X4 Y-8
N0238 X4 Y-11
N0239 Y-7
N0240 X8 Y-15
N0241 Y-8
N0242 X4 Y-8
N0243 Y-8
N0244 X4 Y-7
N0245 Y-15
N0246 X4 Y-15
N0247 Y-22
N0248 X4 Y-11
N0249 Y-19
N0250 X8 Y-15
N0251 X15 Y-8
N0252 X30
N0253 X11 Y4
N0254 X15 Y4
N0255 X8
N0256 X15 Y8
N0257 X8
N0258 X22 Y11
N0259 X11 Y4
N0260 X11 Y8
N0261 X11 Y4
N0262 X11
N0263 X8 Y4
N0264 X45
N0265 X22 Y11
N0266 X7 Y22
N0267 Y8
N0268 X4 Y7
N0269 Y112
N0270 X-4 Y15
N0271 Y37
N0272 X-4 Y11
N0273 Y22
N0274 X-4 Y8
N0275 Y8
N0276 X-8 Y22
N0277 X-8 Y8
N0278 X-15 Y7
N0279 X-11 Y4
N0280 X-8 Y4
N0281 X-11
N0282 X-11 Y4
N0283 X-11
N0284 X-7 Y-4
N0285 X-19
N0286 X-8 Y-4
N0287 X-11 Y4
N0288 M45
N0289 M83 T0 G03 X-27 Y-54 I-14 J-27
N0290 G01 G40 X14 Y27
N0291 G00 X-19 Y436
N0292 G01 X-28 Y-9
N0293 M81 T0 G03 G41 X57 Y19 I28 J9
N0294 G01 X-4 Y11
N0295 Y8
N0296 X-4 Y8
N0297 X-4 Y11
N0298 X-4 Y8
N0299 X-4 Y11
N0300 X-8 Y11
N0301 X-4 Y11
N0302 X-8 Y11
N0303 X-8 Y8
N0304 X-4 Y8
N0305 X-8 Y7
N0306 X-4 Y8
N0307 X-7 Y8
N0308 X-8 Y4
N0309 X-8 Y8
N0310 X-8 Y4
N0311 X-45
N0312 X-8 Y-4
N0313 X-8
N0314 X-22 Y-8
N0315 X-8 Y-7
N0316 X-8 Y-11
N0317 X-4 Y-7
N0318 Y-82
N0319 X8 Y-22
N0320 Y-8
N0321 X4 Y-11
N0322 Y-8
N0323 X8 Y-15
N0324 X4 Y-4
N0325 X8 Y-15
N0326 X8 Y-4
N0327 X4 Y-8
N0328 X11 Y-4
N0329 X26 Y-26
N0330 X4 Y-8
N0331 X11 Y-11
N0332 X4 Y-8
N0333 X7 Y-8
N0334 X11 Y-22
N0335 X8 Y-7
N0336 X7 Y-4
N0337 X11 Y-4
N0338 X7 Y-4
N0339 X11
N0340 X8 Y-4
N0341 X11
N0342 X11 Y-4
N0343 X37
N0344 X19 Y-4
N0345 X41
N0346 X19 Y-4
N0347 X90
N0348 X8 Y4
N0349 X8
N0350 X4 Y8
N0351 X8 Y8
N0352 X4 Y8
N0353 Y45
N0354 X4 Y7
N0355 Y41
N0356 X4 Y8
N0357 Y22
N0358 X4 Y11
N0359 Y7
N0360 X-4 Y11
N0361 X-15 Y7
N0362 X-15
N0363 X-34 Y-11
N0364 X-8
N0365 X-11 Y-4
N0366 X-8 Y-4
N0367 X-11
N0368 X-8 Y-4
N0369 X-11 Y-4
N0370 X-8
N0371 X-8 Y-4
N0372 X-11
N0373 X-8 Y-4
N0374 X-8
N0375 X-11 Y-4
N0376 X-26
N0377 X-8 Y4
N0378 X-11 Y4
N0379 X-15 Y15
N0380 X-8 Y11
N0381 X-4 Y8
N0382 M45
N0383 M83 T0 G03 X-57 Y-19 I-28 J-9
N0384 G01 G40 X28 Y9
N0385 G00 X1205 Y509
N0386 G01 X28 Y12
N0387 M81 T0 G03 G41 X-55 Y-24 I-28 J-12
N0388 G02 I-236 J-103 X-8 Y-222
N0389 G03 I554 J-185 X22 Y-426
N0390 G01 X30 Y-82
N0391 X22 Y-64
N0392 X11 Y-97
N0393 X11 Y-108
N0394 X11 Y-82
N0395 Y-131
N0396 X-8 Y-90
N0397 X-26 Y-71
N0398 X-41 Y-75
N0399 X-30 Y-75
N0400 X-15 Y-108
N0401 X11 Y-64
N0402 X26 Y-64
N0403 X8 Y-45
N0404 Y-79
N0405 X-22 Y-90
N0406 X-26 Y-45
N0407 X-37 Y-67
N0408 X-41 Y-22
N0409 X-82 Y8
N0410 G02 I-25 J179 X-142 Y41
N0411 G03 I36 J127 X116 Y22
N0412 G01 X19 Y11
N0413 X-26
N0414 G02 I-48 J348 X-135 Y7
N0415 G02 I284 J-680 X116 Y38
N0416 G01 X26 Y11
N0417 X-4 Y8
N0418 X-15
N0419 G02 I-57 J187 X-150 Y15
N0420 G03 I-25 J298 X146 Y52
N0421 G01 X19 Y11
N0422 X-15 Y4
N0423 G02 I-22 J313 X-172 Y37
N0424 G03 I36 J401 X183 Y26
N0425 G02 I-34 J386 X-187 Y30
N0426 G01 X-34 Y19
N0427 G03 I69 J494 X180 Y8
N0428 G02 I137 J675 X-187 Y67
N0429 G03 I-14 J913 X187 Y22
N0430 G01 X-30 Y11
N0431 G02 I94 J348 X-127 Y64
N0432 G03 I-30 J664 X157 Y26
N0433 G02 I32 J288 X-142 Y56
N0434 G03 I29 J258 X138 Y22
N0435 G02 I35 J286 X-138 Y56
N0436 G03 I26 J259 X135 Y22
N0437 G02 I20 J287 X-116 Y34
N0438 G03 I2 J262 X116 Y26
N0439 G01 X-64 Y19
N0440 X-45 Y26
N0441 X49 Y7
N0442 X56 Y4
N0443 X-94 Y37
N0444 X34 Y11
N0445 X41 Y4
N0446 X37 Y19
N0447 X-45 Y22
N0448 X-41 Y8
N0449 X-34 Y11
N0450 X41 Y19
N0451 X26 Y15
N0452 X45 Y22
N0453 X4 Y7
N0454 X-8 Y8
N0455 X-8 Y4
N0456 X-8 Y7
N0457 X-8 Y4
N0458 X-30 Y56
N0459 X-60 Y37
N0460 X-78 Y71
N0461 X-38 Y56
N0462 X-34 Y49
N0463 X-243 Y-165
N0464 X11 Y-79
N0465 X-4 Y-41
N0466 X8 Y-11
N0467 X11 Y-8
N0468 X11 Y-4
N0469 X11 Y-8
N0470 X-11
N0471 X-15 Y-8
N0472 X-22 Y-15
N0473 X56 Y-11
N0474 G02 I-106 J240 X-112 Y-22
N0475 G03 I146 J250 X112 Y-38
N0476 G02 I-108 J236 X-135 Y-22
N0477 G03 I174 J232 X142 Y-56
N0478 G02 I-104 J241 X-142 Y-19
N0479 G03 I178 J227 X146 Y-60
N0480 G02 I-111 J240 X-165 Y-19
N0481 G01 X-30 Y-19
N0482 G03 I254 J542 X228 Y-56
N0483 G02 I-173 J540 X-243 Y-22
N0484 G01 X-15 Y-8
N0485 X26 Y-22
N0486 G03 I211 J475 X217 Y-45
N0487 G02 I-195 J475 X-228 Y-37
N0488 G01 X-30 Y-8
N0489 X38 Y-26
N0490 G03 I180 J337 X183 Y-45
N0491 G02 I-167 J344 X-195 Y-37
N0492 G01 X-26 Y-4
N0493 X26 Y-22
N0494 G03 I182 J220 X150 Y-64
N0495 G02 I-110 J236 X-165 Y-19
N0496 G01 X-45 Y-8
N0497 G03 I183 J225 X153 Y-64
N0498 G02 I-110 J236 X-165 Y-19
N0499 G03 I183 J223 X150 Y-64
N0500 G02 I-109 J239 X-161 Y-19
N0501 G03 I177 J226 X150 Y-60
N0502 G02 I-111 J235 X-146 Y-22
N0503 G03 I0 J-2 Y-4
N0504 G01 X101 Y-45
N0505 G02 I-86 J153 X-94 Y-22
N0506 G01 X-146
N0507 X-71 Y11
N0508 X-60 Y7
N0509 X-56 Y19
N0510 X-19 Y15
N0511 X-26 Y22
N0512 X-34 Y60
N0513 X-26 Y82
N0514 X-22 Y101
N0515 X-8 Y56
N0516 X-19 Y82
N0517 X-22 Y30
N0518 X-19 Y45
N0519 X-8 Y49
N0520 X8 Y41
N0521 X11 Y71
N0522 X-4 Y52
N0523 X-7 Y41
N0524 X-4 Y41
N0525 X22 Y210
N0526 X-8 Y348
N0527 Y11
N0528 X-4 Y60
N0529 X8 Y82
N0530 X26 Y94
N0531 X8 Y45
N0532 X-4 Y34
N0533 X-8 Y37
N0534 G02 I322 J180 X-37 Y262
N0535 G01 X22 Y56
N0536 X34 Y49
N0537 G02 I733 J-628 X479 Y303
N0538 G02 I28 J-199 X180 Y-67
N0539 G03 I121 J150 X213 Y-19
N0540 G02 I133 J-187 X180 Y37
N0541 G01 X86 Y-19
N0542 X-101 Y-501
N0543 X60 Y-11
N0544 X101 Y498
N0545 X108 Y-22
N0546 X60 Y-26
N0547 X41 Y-41
N0548 G02 I-187 J-177 X49 Y-74
N0549 M45
N0550 M83 T0 G03 X55 Y24 I28 J12
N0551 G01 G40 X-28 Y-12
N0552 G00 X-437 Y-3804
N0553 G01 X-24 Y18
N0554 M81 T0 G03 G41 X48 Y-36 I24 J-18
N0555 G01 X94 Y127
N0556 X30 Y22
N0557 X41 Y19
N0558 G03 I12 J172 X176 Y120
N0559 G01 X71 Y112
N0560 X67 Y120
N0561 X75 Y168
N0562 X45 Y124
N0563 X41 Y138
N0564 X30 Y142
N0565 X19 Y120
N0566 X-4 Y60
N0567 X-11 Y45
N0568 X-22 Y56
N0569 X-52 Y64
N0570 G02 I112 J70 X105 Y202
N0571 G03 I-37 J66 X-30 Y142
N0572 G01 X-45 Y11
N0573 X-34 Y19
N0574 G02 I85 J68 X34 Y165
N0575 G01 X22 Y41
N0576 X7 Y34
N0577 X4 Y37
N0578 G02 I4988 J620 X-15 Y1104
N0579 G01 X-11 Y34
N0580 X-45 Y52
N0581 G02 I97 J51 X60 Y153
N0582 G03 I-56 J81 X-11 Y168
N0583 G02 I153 J243 X-127 Y307
N0584 G02 I141 J-5 X105 Y131
N0585 G03 I337 J-75 Y-150
N0586 G03 I103 J4 X198 Y-34
N0587 G01 X41 Y97
N0588 X52 Y146
N0589 X30 Y90
N0590 X15 Y30
N0591 X30 Y38
N0592 X30 Y22
N0593 X26 Y15
N0594 X56 Y8
N0595 X37
N0596 X79 Y-26
N0597 G03 I151 J360 X513 Y213
N0598 G02 I71 J-53 X52 Y34
N0599 G02 I-509 J-74 X-15 Y-217
N0600 G02 I-219 J60 X-71 Y-112
N0601 G02 I-395 J476 X-378 Y-142
N0602 G03 I73 J-301 X-213 Y-183
N0603 G01 X-79 Y-194
N0604 Y-38
N0605 G02 I-130 J-27 X-71 Y-146
N0606 G03 I34 J-71 Y-142
N0607 G02 I-112 J-91 X-4 Y-187
N0608 G03 I111 J-126 X-56 Y-138
N0609 G03 I4332 J15 X27 Y-465
N0610 G01 X2 Y-21
N0611 G03 I4304 J501 X83 Y-480
N0612 G03 I215 J39 X120 Y-157
N0613 G02 I-32 J-110 X82 Y-101
N0614 G02 I-101 J4 X-108 Y-97
N0615 G01 X-34 Y-8
N0616 G03 I18 J-73 X-30 Y-131
N0617 G01 X34 Y-38
N0618 X19 Y-30
N0619 X15 Y-45
N0620 X19 Y-105
N0621 X11 Y-120
N0622 X8 Y-198
N0623 X-8 Y-127
N0624 X-11 Y-127
N0625 X-30 Y-157
N0626 X-37 Y-142
N0627 X-52 Y-146
N0628 X-64 Y-150
N0629 X-82 Y-150
N0630 X-94 Y-138
N0631 X-71 Y-108
N0632 X-15 Y-34
N0633 X-4 Y-37
N0634 X7 Y-45
N0635 X-4 Y-37
N0636 X-15 Y-30
N0637 X-45 Y-67
N0638 X-15 Y-19
N0639 X-11 Y-4
N0640 X-22 Y8
N0641 X-254 Y191
N0642 X202 Y281
N0643 X-45 Y37
N0644 X-206 Y-281
N0645 X-251 Y191
N0646 X-26 Y26
N0647 Y11
N0648 X15 Y30
N0649 M45
N0650 M83 T0 G03 X-48 Y36 I-24 J18
N0651 G01 G40 X24 Y-18
N0652 G00 X2177 Y5746
N0653 G01 X12 Y27
N0654 M81 T0 G03 G41 X-24 Y-55 I-12 J-27
N0655 G02 I-83 J-186 X120 Y-172
N0656 G01 X15 Y-34
N0657 X41 Y-45
N0658 X404 Y-314
N0659 G02 I-101 J-100 X19 Y-176
N0660 G01 X-26 Y-30
N0661 G03 I313 J-537 X-303 Y-456
N0662 G02 I-1993 J737 X-115 Y-257
N0663 G01 X-10 Y-19
N0664 G02 I-1867 J1013 X-163 Y-255
N0665 G01 X-15 Y-34
N0666 X-11 Y-45
N0667 G02 I-155 J-36 X-161 Y-195
N0668 G03 I22 J-73 X-11 Y-142
N0669 G01 X41 Y-26
N0670 G02 I-60 J-70 X-30 Y-157
N0671 G03 I183 J-370 X-228 Y-333
N0672 G01 X-30 Y-142
N0673 X-15 Y-120
N0674 X-11 Y-120
N0675 X-4 Y-135
N0676 X8 Y-45
N0677 X8 Y-37
N0678 X26 Y-52
N0679 G02 I-117 J-45 X-22 Y-127
N0680 G03 I56 J-91 X-37 Y-142
N0681 G02 I-581 J-476 X157 Y-337
N0682 G03 I282 J100 X367 Y-187
N0683 G02 I-20 J-506 X142 Y-26
N0684 G02 I-75 J-209 X86 Y-56
N0685 G02 I-304 J-294 X116 Y-243
N0686 G02 I-16 J74 X-67 Y19
N0687 G01 X-49 Y49
N0688 G03 I-180 J-202 X-382 Y-22
N0689 G02 I-98 J165 X-288 Y135
N0690 G03 I-132 J-11 X-262 Y15
N0691 G03 I157 J-68 X-8 Y-116
N0692 G02 I147 J204 X-101 Y161
N0693 G02 I299 J-15 X105 Y213
N0694 G03 I-60 J94 X8 Y183
N0695 G01 X-22 Y11
N0696 X-37 Y11
N0697 G02 I26 J72 X-37 Y116
N0698 G03 I-41 J71 X-34 Y153
N0699 G01 X-19 Y15
N0700 G02 I64 J75 X-11 Y138
N0701 G01 X71 Y64
N0702 X22 Y41
N0703 X8 Y37
N0704 X-8 Y172
N0705 X8 Y157
N0706 X19 Y195
N0707 X34 Y168
N0708 X45 Y165
N0709 Y60
N0710 X-8 Y49
N0711 X-22 Y41
N0712 X-30 Y52
N0713 G02 I98 J38 X138 Y135
N0714 G01 X34 Y4
N0715 G03 I-19 J74 X45 Y116
N0716 G01 X-30 Y41
N0717 G02 I85 J49 X37 Y135
N0718 G01 X41 Y22
N0719 X22 Y7
N0720 X30 Y22
N0721 X22 Y30
N0722 G03 I-1758 J1014 X213 Y531
N0723 G03 I-407 J84 X-157 Y415
N0724 G01 X-49 Y37
N0725 X-105 Y79
N0726 X-4 Y11
N0727 X8 Y22
N0728 X206 Y262
N0729 X273 Y-217
N0730 X37 Y49
N0731 X-273 Y213
N0732 X198 Y251
N0733 X11 Y8
N0734 X11 Y4
N0735 M45
N0736 M83 T0 G03 X24 Y55 I12 J27
N0737 G01 G40 X-12 Y-27
N0738 G00 X-69 Y-3454
N0739 G01 X-20 Y23
N0740 M81 T0 G03 G41 X39 Y-46 I20 J-23
N0741 G03 I-180 J209 X96 Y216
N0742 G01 X-1 Y21
N0743 G03 I-274 J-28 X-106 Y190
N0744 G02 I67 J87 X-37 Y52
N0745 G02 I142 J50 X15 Y131
N0746 G01 X34 Y52
N0747 X22 Y37
N0748 X258 Y-161
N0749 X30 Y49
N0750 X-258 Y161
N0751 X52 Y86
N0752 X22 Y26
N0753 X30 Y22
N0754 X45 Y19
N0755 X49 Y8
N0756 X37 Y-4
N0757 X34 Y-11
N0758 X34 Y-15
N0759 X56 Y-41
N0760 X26 Y-11
N0761 X45 Y-8
N0762 X37
N0763 X34 Y15
N0764 X49 Y34
N0765 X22 Y26
N0766 X15 Y34
N0767 X11 Y45
N0768 X-4 Y108
N0769 X8 Y37
N0770 X19 Y34
N0771 X22 Y26
N0772 X34 Y19
N0773 X34 Y8
N0774 X37 Y4
N0775 X22 Y-4
N0776 X34 Y-15
N0777 X30 Y-19
N0778 X49 Y-67
N0779 X45 Y-37
N0780 X38 Y-30
N0781 X45 Y-19
N0782 X45 Y-15
N0783 X60 Y-8
N0784 X60
N0785 X97 Y19
N0786 X37
N0787 X45 Y-11
N0788 X34 Y-15
N0789 X37 Y-26
N0790 X26 Y-30
N0791 X22 Y-41
N0792 X11 Y-49
N0793 X-4 Y-49
N0794 X-11 Y-56
N0795 X-37 Y-79
N0796 X-26 Y-56
N0797 X-34 Y-67
N0798 X-97 Y-165
N0799 X-138 Y-213
N0800 X-138 Y-195
N0801 X-108 Y-138
N0802 X-105 Y-124
N0803 X-131 Y-146
N0804 G02 I-403 J387 X-213 Y-138
N0805 G02 I-124 J412 X-329 Y34
N0806 G01 X-131 Y71
N0807 X449 Y718
N0808 X-52 Y34
N0809 X-445 Y-722
N0810 X-75 Y49
N0811 G02 I120 J176 X52 Y378
N0812 G03 I-36 J103 X37 Y22
N0813 M45
N0814 M83 T0 G03 X-39 Y46 I-20 J23
N0815 G01 G40 X20 Y-23
N0816 G00 X815 Y1727
N0817 G01 X-24 Y17
N0818 M81 T0 G03 G41 X49 Y-35 I24 J-17
N0819 G03 I-224 J160 X41 Y232
N0820 G01 X-6 Y20
N0821 G03 I-259 J-93 X-147 Y159
N0822 G02 I50 J103 X-49 Y45
N0823 G02 I127 J81 X-15 Y131
N0824 G01 X19 Y60
N0825 X15 Y38
N0826 X288 Y-94
N0827 X19 Y56
N0828 X-288 Y97
N0829 X30 Y94
N0830 X15 Y30
N0831 X26 Y30
N0832 X37 Y30
N0833 X45 Y15
N0834 X37 Y8
N0835 X37 Y-4
N0836 X34 Y-8
N0837 X67 Y-26
N0838 X22 Y-4
N0839 X49
N0840 X34 Y11
N0841 X34 Y19
N0842 X37 Y45
N0843 X15 Y34
N0844 X11 Y34
N0845 X-4 Y49
N0846 X-26 Y105
N0847 Y37
N0848 X7 Y34
N0849 X15 Y34
N0850 X30 Y26
N0851 X30 Y15
N0852 X37 Y11
N0853 X22 Y4
N0854 X34 Y-7
N0855 X34 Y-11
N0856 X64 Y-52
N0857 X52 Y-30
N0858 X45 Y-19
N0859 X49 Y-8
N0860 X49 Y-4
N0861 X56 Y4
N0862 X60 Y19
N0863 X90 Y38
N0864 X34 Y11
N0865 X49
N0866 X37 Y-8
N0867 X45 Y-19
N0868 X30 Y-22
N0869 X30 Y-37
N0870 X22 Y-41
N0871 X8 Y-49
N0872 Y-56
N0873 X-15 Y-86
N0874 X-34 Y-135
N0875 X-52 Y-183
N0876 X-86 Y-240
N0877 X-90 Y-221
N0878 X-71 Y-157
N0879 X-75 Y-146
N0880 X-94 Y-176
N0881 G02 I-476 J291 X-176 Y-180
N0882 G02 I-218 J370 X-329 Y-45
N0883 G01 X-142 Y41
N0884 X269 Y801
N0885 X-56 Y19
N0886 X-269 Y-804
N0887 X-82 Y26
N0888 G02 I75 J200 X-37 Y382
N0889 G03 I-58 J99 X34 Y30
N0890 M45
N0891 M83 T0 G03 X-49 Y35 I-24 J17
N0892 G01 G40 X24 Y-17
N0893 G00 X1937 Y484
N0894 G01 X15 Y-26
N0895 M81 T0 G03 G41 X-31 Y52 I-15 J26
N0896 G03 I41 J-70 X15 Y-146
N0897 G02 I-53 J-50 X-22 Y-116
N0898 G01 X-45 Y-15
N0899 G03 I34 J-69 Y-138
N0900 G02 I-41 J-67 X-37 Y-146
N0901 G01 X-34 Y-8
N0902 G03 I23 J-74 X-34 Y-127
N0903 G01 X49 Y-38
N0904 G02 I-60 J-52 X-86 Y-127
N0905 G03 I-11 J-67 X-78 Y-56
N0906 G03 I67 J-11 X37 Y-72
N0907 G01 X37 Y-26
N0908 G02 I-41 J-59 X-41 Y-131
N0909 G01 X-71 Y-4
N0910 G03 I11 J-71 X-4 Y-142
N0911 G01 X49 Y-34
N0912 G02 I-48 J-47 X-30 Y-112
N0913 G01 X-60 Y-15
N0914 X-71 Y-11
N0915 G03 I15 J-70 X-22 Y-131
N0916 G01 X75 Y-34
N0917 G02 I-45 J-55 X-26 Y-124
N0918 G01 X-64 Y-26
N0919 X-127 Y-41
N0920 G03 I34 J-63 X30 Y-135
N0921 G02 I7 J-78 X75 Y-116
N0922 G01 X-26 Y-19
N0923 X-41 Y-19
N0924 X-71 Y-19
N0925 X-127 Y-34
N0926 X-19 Y-15
N0927 G03 I71 J-59 X-4 Y-112
N0928 G01 X22 Y-11
N0929 X34 Y-11
N0930 X49 Y-4
N0931 G02 I-22 J-73 X11 Y-142
N0932 G01 X-30 Y-15
N0933 X-138 Y-37
N0934 X-108 Y-22
N0935 G03 I23 J-73 X15 Y-150
N0936 G01 X82 Y-8
N0937 G02 I-15 J-74 X11 Y-146
N0938 G01 X-86 Y-34
N0939 X-90 Y-30
N0940 X-131 Y-34
N0941 G03 I4 J-77 Y-153
N0942 G01 X82 Y-4
N0943 G02 I-8 J-75 X8 Y-150
N0944 G01 X-116 Y-34
N0945 X-105 Y-26
N0946 X-108 Y-15
N0947 X-22 Y-8
N0948 X-19 Y-15
N0949 X-11 Y-22
N0950 G03 I67 J-29 X60 Y-101
N0951 G01 X37 Y-4
N0952 X71 Y7
N0953 G02 I0 J-73 X34 Y-138
N0954 G01 X-41 Y-22
N0955 X-131 Y-52
N0956 X-150 Y-41
N0957 X-120 Y-22
N0958 G03 I26 J-73 X11 Y-150
N0959 G01 X34
N0960 X108 Y19
N0961 G02 I7 J-73 X41 Y-138
N0962 G02 I-546 J1129 X-367 Y-112
N0963 G01 X-120 Y-19
N0964 X-30 Y-19
N0965 X-11 Y-8
N0966 G03 I71 J-47 X11 Y-108
N0967 G01 X19 Y-11
N0968 X34 Y-4
N0969 X97 Y11
N0970 X49 Y4
N0971 G02 I9 J-75 X19 Y-150
N0972 G01 X-105 Y-45
N0973 X-138 Y-41
N0974 X-94 Y-26
N0975 G03 I135 J-849 X-426 Y-198
N0976 G01 X-385 Y-363
N0977 X-11 Y-4
N0978 X-22 Y8
N0979 X-187 Y191
N0980 X340 Y333
N0981 X-41 Y41
N0982 X-340 Y-333
N0983 X-114 Y116
N0984 X-15 Y15
N0985 X-129 Y131
N0986 Y11
N0987 X19 Y71
N0988 X4 Y34
N0989 X-11 Y34
N0990 X-15 Y30
N0991 X-150 Y157
N0992 G02 I108 J82 X26 Y190
N0993 G02 I82 J-108 X168 Y-3
N0994 G01 X198 Y-195
N0995 G03 I45 J67 X90
N0996 G03 I-49 J59 X-15 Y127
N0997 G01 X-127 Y123
N0998 G02 I104 J122 X-49 Y172
N0999 G02 I126 J-60 X213 Y49
N1000 G01 X153 Y-153
N1001 G03 I75 J52 X105 Y-34
N1002 G01 X8 Y4
N1003 G03 I-48 J60 X19 Y97
N1004 G01 X-176 Y176
N1005 G02 I116 J90 X-4 Y176
N1006 G02 I110 J-97 X194 Y22
N1007 G01 X142 Y-146
N1008 X19 Y-15
N1009 X34 Y-11
N1010 X34
N1011 X52 Y19
N1012 X15 Y19
N1013 X168 Y-157
N1014 X41 Y41
N1015 X-168 Y161
N1016 X191 Y221
N1017 X30 Y37
N1018 X176 Y-150
N1019 X41 Y45
N1020 X-180 Y150
N1021 X37 Y45
N1022 X86 Y112
N1023 X56 Y67
N1024 X30 Y37
N1025 X168 Y-131
N1026 X41 Y45
N1027 X-172 Y135
N1028 X34 Y45
N1029 X112 Y157
N1030 X30 Y37
N1031 X26 Y34
N1032 X168 Y-124
N1033 X38 Y49
N1034 X-168 Y124
N1035 X22 Y34
N1036 X37 Y64
N1037 X101 Y146
N1038 X30 Y41
N1039 X168 Y-105
N1040 X34 Y49
N1041 X-168 Y108
N1042 X34 Y49
N1043 X120 Y198
N1044 X26 Y45
N1045 X168 Y-97
N1046 X30 Y52
N1047 X-165 Y97
N1048 X41 Y67
N1049 X105 Y187
N1050 X22 Y41
N1051 X165 Y-86
N1052 X26 Y52
N1053 X-161 Y86
N1054 X41 Y79
N1055 X60 Y112
N1056 X10 Y19
N1057 X50 Y94
N1058 X161 Y-86
N1059 X26 Y56
N1060 X-161 Y82
N1061 X22 Y41
N1062 X4 Y45
N1063 G03 I-112 J-4 X-101 Y108
N1064 G01 X-34 Y11
N1065 X-19 Y11
N1066 G02 I70 J85 X-15 Y155
N1067 G02 I85 J-70 X142 Y24
N1068 G01 X41 Y-22
N1069 G03 I53 J98 X142 Y165
N1070 G01 X-19 Y15
N1071 X-30 Y19
N1072 G02 I18 J121 X-82 Y191
N1073 G02 I84 J-79 X131 Y26
N1074 G01 X67 Y-22
N1075 G03 I25 J100 X56 Y198
N1076 G01 X-45 Y19
N1077 X-30 Y22
N1078 G02 I86 J68 X52 Y172
N1079 G01 X37
N1080 X82 Y-11
N1081 G03 I7 J101 X52 Y191
N1082 G01 X-64 Y34
N1083 G02 I56 J84 X34 Y183
N1084 G01 X105
N1085 G03 I-19 J94 X30 Y176
N1086 G01 X-64 Y30
N1087 G02 I52 J78 X41 Y172
N1088 G01 X60 Y8
N1089 G03 I-27 J92 X19 Y176
N1090 G01 X-52 Y30
N1091 G02 I56 J67 X45 Y153
N1092 G01 X45 Y11
N1093 G03 I-34 J78 X8 Y153
N1094 G02 I20 J96 X-75 Y120
N1095 G01 X26 Y258
N1096 X11 Y240
N1097 X8 Y385
N1098 G02 I88 J-23 X176
N1099 G01 X22 Y-131
N1100 X49 Y-247
N1101 X8 Y-82
N1102 X45 Y-299
N1103 X26 Y-217
N1104 X19 Y-266
N1105 X8 Y-172
N1106 Y-243
N1107 X-4 Y-187
N1108 X-11 Y-180
N1109 X-15 Y-120
N1110 G02 I-78 J7 X-71 Y-71
N1111 M45
N1112 M83 T0 G03 X31 Y-52 I15 J-26
N1113 G01 G40 X-15 Y26
N1114 G00 X-1134 Y-4484
N1115 G01 X30 Y-1
N1116 M81 T0 G03 G41 X-60 Y2 I-30 J1
N1117 G03 I117 J-4 X97 Y-120
N1118 G01 X26
N1119 X127 Y37
N1120 X49 Y8
N1121 G02 I9 J-106 X116 Y-101
N1122 G01 X-4 Y-172
N1123 X4 Y-56
N1124 X-8 Y-97
N1125 G02 I-96 J16 X-116 Y-79
N1126 G01 X-198 Y86
N1127 X-247 Y108
N1128 Y195
N1129 X-60
N1130 Y-191
N1131 X-415 Y-168
N1132 G02 I-43 J102 X-153 Y108
N1133 G01 X8 Y281
N1134 G02 I102 J0 X142 Y94
N1135 G01 X135 Y-34
N1136 G03 I23 J106 X131 Y97
N1137 G01 X15 Y228
N1138 G02 I167 J-26 X337 Y-30
N1139 G01 X15 Y-195
N1140 M45
N1141 M83 T0 G03 X60 Y-2 I30 J-1
N1142 G01 G40 X-30 Y1
N1143 G00 X624 Y409
N1144 G01 X-4 Y30
N1145 M81 T0 G03 G41 X9 Y-59 I4 J-30
N1146 G03 I-19 J126 X101 Y168
N1147 G01 X-41 Y116
N1148 G02 I114 J16 X108 Y131
N1149 G01 X303 Y-8
N1150 G02 I-4 J-131 X112 Y-71
N1151 G01 X8 Y-19
N1152 Y-7
N1153 X-4 Y-15
N1154 X-4 Y-22
N1155 X-4 Y-11
N1156 X-8 Y-19
N1157 X-217 Y-412
N1158 X-191 Y4
N1159 Y-60
N1160 X187 Y-4
N1161 X49 Y-97
N1162 X138 Y-307
N1163 G02 I-106 J-58 X-112 Y-180
N1164 G01 X-299 Y7
N1165 G02 I24 J126 X-86 Y60
N1166 G02 I63 J39 X-11 Y37
N1167 G01 Y22
N1168 X19 Y79
N1169 X26 Y78
N1170 G03 I-115 J22 X-101 Y138
N1171 G01 X-232 Y30
N1172 X-45 Y15
N1173 G02 I60 J165 X49 Y340
N1174 G01 X254 Y4
N1175 M45
N1176 M83 T0 G03 X-9 Y59 I-4 J30
N1177 G01 G40 X4 Y-30
N1178 G00 X94 Y589
N1179 G01 X-8 Y-29
N1180 M81 T0 G03 G41 X16 Y58 I8 J29
N1181 G03 I-30 J-105 X-138 Y-94
N1182 G01 X-34 Y-165
N1183 X-4 Y-11
N1184 G02 I-97 J56 X-138 Y-49
N1185 G01 X-71 Y30
N1186 X-277 Y131
N1187 G02 I60 J100 X-22 Y183
N1188 G01 X138 Y105
N1189 X273 Y213
N1190 X183 Y-90
N1191 X26 Y52
N1192 X-187 Y94
N1193 X4 Y505
N1194 G02 I116 J-4 X157 Y105
N1195 G01 X86 Y-41
N1196 X247 Y-127
N1197 G02 I-48 J-106 X49 Y-172
N1198 G01 X-127 Y-135
N1199 G03 I78 J-66 X15 Y-146
N1200 G01 X210 Y-127
N1201 G02 I-90 J-170 X-127 Y-359
N1202 G01 X-90 Y30
N1203 X-172 Y67
N1204 M45
N1205 M83 T0 G03 X-16 Y-58 I-8 J-29
N1206 G01 G40 X8 Y29
N1207 G00 X-6010 Y3823
N1208 G01 X2 Y-30
N1209 M81 T0 G03 G41 X-5 Y60 I-2 J30
N1210 G01 X-94 Y-8
N1211 X-131 Y-19
N1212 X-101 Y-30
N1213 X-142 Y-45
N1214 X-45 Y-19
N1215 G02 I-22 J74 X-64 Y138
N1216 G01 X60 Y37
N1217 X120 Y67
N1218 X124 Y49
N1219 G02 I401 J-1058 X636 Y49
N1220 G02 I-201 J-503 X318 Y-348
N1221 G03 I145 J75 X101 Y-82
N1222 G01 X273 Y-41
N1223 G02 I0 J-205 X34 Y-408
N1224 G01 X-314 Y-26
N1225 G03 I20 J-179 X-157 Y-146
N1226 G01 X-34 Y-52
N1227 X-67 Y-79
N1228 X-19 Y-15
N1229 G02 I-379 J484 X-314 Y-127
N1230 G01 X-71
N1231 G02 I122 J1233 X-554 Y195
N1232 G01 X-116 Y67
N1233 X-67 Y49
N1234 G02 I45 J52 X56 Y120
N1235 G01 X224 Y-86
N1236 X64 Y-19
N1237 X150 Y-34
N1238 X112 Y-11
N1239 X49
N1240 X60 Y8
N1241 G03 I-78 J266 X198 Y273
N1242 G01 X4 Y86
N1243 X266 Y-8
N1244 X4 Y60
N1245 X-269 Y8
N1246 X4 Y45
N1247 X-4 Y26
N1248 Y19
N1249 G03 I-278 J28 X-292 Y307
N1250 M45
N1251 M83 T0 G03 X5 Y-60 I2 J-30
N1252 G01 G40 X-2 Y30
N1253 G00 X-139 Y1764
N1254 G01 X28 Y-10
N1255 M81 T0 G03 G41 X-57 Y19 I-28 J10
N1256 G01 X-45 Y-135
N1257 G03 I105 J-51 X11 Y-120
N1258 G01 X19 Y-19
N1259 X34 Y-15
N1260 X34 Y-8
N1261 X296 Y-26
N1262 G02 I-49 J-196 X-19 Y-397
N1263 G01 X-116 Y-8
N1264 X-165 Y-11
N1265 G03 I13 J-115 X-101 Y-131
N1266 G01 X22 Y-94
N1267 X49 Y-150
N1268 G02 I-111 J-25 X-116 Y-138
N1269 G01 X-442 Y11
N1270 G02 I19 J108 X-90 Y124
N1271 G01 X37 Y97
N1272 X202 Y456
N1273 X232 Y4
N1274 Y60
N1275 X-221 Y-4
N1276 X-251 Y524
N1277 G02 I102 J46 X94 Y157
N1278 G01 X412
N1279 G02 I23 J-117 X124 Y-180
N1280 M45
N1281 M83 T0 G03 X57 Y-19 I28 J-10
N1282 G01 G40 X-28 Y10
N1283 G00 X967 Y-1114
N1284 G01 X27 Y14
N1285 M81 T0 G03 G41 X-53 Y-27 I-27 J-14
N1286 G03 I1234 J633 X876 Y-707
N1287 G01 X34 Y-15
N1288 G02 I-37 J-63 X-22 Y-135
N1289 G01 X-82 Y8
N1290 X-71 Y8
N1291 X-142 Y34
N1292 X-56 Y15
N1293 X-153 Y64
N1294 X-120 Y60
N1295 X-82 Y52
N1296 X-67 Y52
N1297 X-108 Y94
N1298 X-64 Y64
N1299 X-90 Y112
N1300 X-64 Y90
N1301 X-60 Y105
N1302 X-56 Y120
N1303 X-41 Y127
N1304 G02 I576 J169 X45 Y449
N1305 G01 X4 Y26
N1306 Y34
N1307 X-11 Y34
N1308 X-202 Y288
N1309 G02 I156 J137 X307 Y281
N1310 G01 X243 Y-210
N1311 G03 I96 J116 X146 Y-26
N1312 G02 I203 J-602 X494 Y-37
N1313 G02 I-613 J-1296 X707 Y-737
N1314 G02 I-1197 J-497 X97 Y-569
N1315 G02 I-76 J9 X-82 Y-67
N1316 G01 X-34 Y11
N1317 X-8 Y4
N1318 X-15 Y22
N1319 G03 I-1503 J-268 X-483 Y868
N1320 G01 X-64 Y52
N1321 X-71 Y49
N1322 X-82 Y52
N1323 G03 I-153 J-269 X-344 Y-26
N1324 G01 X-45 Y-37
N1325 X-60 Y-56
N1326 X-183 Y202
N1327 X-45 Y-41
N1328 X180 Y-198
N1329 X-105 Y-112
N1330 G03 I224 J-211 X-19 Y-400
N1331 M45
N1332 M83 T0 G03 X53 Y27 I27 J14
N1333 G01 G40 X-27 Y-14
N1334 G00 X1817 Y127
N1335 G01 X-27 Y-12
N1336 M81 T0 G03 G41 X55 Y25 I27 J12
N1337 G03 I-1276 J-580 X-917 Y774
N1338 G02 I26 J71 X22 Y146
N1339 G02 I-67 J-1265 X778 Y-322
N1340 G01 X64 Y-56
N1341 X75 Y-79
N1342 X67 Y-86
N1343 G02 I-1034 J-794 X262 Y-651
N1344 G01 X-8 Y-75
N1345 X-22 Y-105
N1346 X-30 Y-82
N1347 X-8 Y-37
N1348 X4 Y-34
N1349 X15 Y-34
N1350 X82 Y-138
N1351 X101 Y-153
N1352 G02 I-176 J-127 X-22 Y-281
N1353 G02 I-126 J161 X-266 Y11
N1354 G01 X-180 Y161
N1355 X-64 Y56
N1356 X-30 Y19
N1357 X-34 Y11
N1358 X-37 Y4
N1359 X-34 Y-8
N1360 X-71 Y-19
N1361 X-97 Y-11
N1362 X-94
N1363 X-64 Y11
N1364 X-112 Y34
N1365 X-60 Y22
N1366 X-105 Y56
N1367 X-101 Y60
N1368 X-60 Y41
N1369 X-90 Y75
N1370 X-78 Y75
N1371 X-60 Y64
N1372 X-94 Y127
N1373 X-79 Y138
N1374 X-34 Y64
N1375 X-34 Y94
N1376 X-30 Y82
N1377 X-15 Y56
N1378 X-11 Y26
N1379 X-26 Y183
N1380 X-4 Y127
N1381 Y60
N1382 X4 Y15
N1383 G02 I64 J-37 X138 Y-30
N1384 G03 I1417 J255 X737 Y-1014
N1385 G03 I118 J315 X378 Y101
N1386 G01 X34 Y30
N1387 X180 Y-198
N1388 X45 Y41
N1389 X-180 Y198
N1390 X30 Y26
N1391 X39 Y40
N1392 G03 I-230 J260 X111 Y327
N1393 G01 X-19 Y56
N1394 M45
N1395 M83 T0 G03 X-55 Y-25 I-27 J-12
N1396 G01 G40 X27 Y12
N1397 G00 X1082 Y701
N1398 G01 X29 Y-7
N1399 M81 T0 G03 G41 X-58 Y15 I-29 J7
N1400 G03 I130 J-33 X172 Y-161
N1401 G02 I86 J-127 X240 Y-127
N1402 G01 X71 Y-120
N1403 X64 Y-86
N1404 G03 I1060 J806 X415 Y-359
N1405 G02 I-52 J-64 X-64 Y-146
N1406 G01 X-45 Y8
N1407 X-90 Y30
N1408 X-131 Y56
N1409 X-75 Y41
N1410 X-131 Y86
N1411 X-82 Y64
N1412 X-86 Y78
N1413 X-78 Y86
N1414 X-41 Y41
N1415 G03 I-89 J-97 X-213 Y-52
N1416 G02 I-109 J75 X-206 Y-15
N1417 G03 I-124 J-78 X-172 Y60
N1418 G01 X-131 Y-75
N1419 X-11
N1420 X-11 Y4
N1421 X-15 Y19
N1422 X-157 Y284
N1423 X509 Y284
N1424 X-30 Y52
N1425 X-509 Y-284
N1426 X-150 Y269
N1427 X-15 Y34
N1428 X4 Y11
N1429 X8 Y8
N1430 X26 Y22
N1431 G03 I-48 J136 X79 Y206
N1432 G02 I150 J42 X34 Y146
N1433 G02 I96 J-116 X135 Y30
N1434 G01 X60 Y-15
N1435 X34 Y4
N1436 X38 Y11
N1437 X41 Y15
N1438 X120 Y60
N1439 G03 I-613 J1183 X501 Y453
N1440 G03 I-157 J104 X-4 Y213
N1441 G02 I71 J26 X116 Y86
N1442 G02 I-862 J-864 X266 Y-397
N1443 G01 X26 Y-75
N1444 X34 Y-112
N1445 X22 Y-90
N1446 G02 I-74 J-7 X-124 Y-64
N1447 G01 X-56 Y45
N1448 G03 I-97 J-146 X-157 Y19
N1449 G03 I446 J-1302 X-212 Y-93
N1450 G01 X-18 Y-10
N1451 G03 I676 J-1198 X-208 Y-144
N1452 G01 X-19 Y-30
N1453 G03 I67 J-29 X60 Y-101
N1454 G01 X60 Y-8
N1455 G02 I-27 J-156 X127 Y-194
N1456 G01 X-19 Y-67
N1457 M45
N1458 M83 T0 G03 X58 Y-15 I29 J-7
N1459 G01 G40 X-29 Y7
N1460 G00 X-3135 Y1656
N1461 G01 X-27 Y13
N1462 M81 T0 G03 G41 X54 Y-27 I27 J-13
N1463 G01 X26 Y52
N1464 X206 Y-112
N1465 X30 Y52
N1466 X-303 Y168
N1467 X-101 Y64
N1468 X-67 Y45
N1469 X-86 Y64
N1470 X-112 Y101
N1471 X-94 Y97
N1472 X-105 Y120
N1473 X-71 Y97
N1474 X-79 Y120
N1475 G02 I126 J61 X82 Y195
N1476 G01 X138 Y22
N1477 X135 Y34
N1478 X120 Y37
N1479 G03 I-103 J239 X138 Y337
N1480 G03 I-120 J4 X-45 Y97
N1481 G02 I-90 J-277 X116 Y-71
N1482 G01 X37 Y-49
N1483 X11 Y-30
N1484 X15 Y-56
N1485 X19 Y-30
N1486 G03 I58 J41 X124 Y11
N1487 G03 I-154 J121 X-26 Y269
N1488 G03 I-311 J-367 X-217 Y105
N1489 G02 I127 J-296 X273 Y-584
N1490 G02 I-1093 J1598 X-419 Y-217
N1491 G01 X-108 Y-41
N1492 G03 I41 J-90 X-15 Y-172
N1493 G01 X116 Y-116
N1494 X127 Y-101
N1495 X116 Y-82
N1496 X531 Y-318
N1497 G02 I-109 J-161 X60 Y-258
N1498 G01 X-15 Y-26
N1499 X-56 Y-97
N1500 X-15 Y-22
N1501 G02 I-152 J109 X-240 Y-56
N1502 G01 X-217 Y131
N1503 G02 I101 J126 X-30 Y221
N1504 M45
N1505 M83 T0 G03 X-54 Y27 I-27 J13
N1506 G01 G40 X27 Y-13
N1507 G00 X652 Y98
N1508 G01 X-25 Y-16
N1509 M81 T0 G03 G41 X51 Y32 I25 J16
N1510 G03 I-1096 J-696 X-498 Y456
N1511 G01 X-94 Y52
N1512 X-165 Y75
N1513 G02 I37 J64 X37 Y138
N1514 G01 X34
N1515 X71 Y-11
N1516 X124 Y-34
N1517 X116 Y-41
N1518 X165 Y-82
N1519 X161 Y-101
N1520 G03 I80 J198 X176 Y8
N1521 G02 I60 J-243 X269 Y-105
N1522 G01 X94 Y-135
N1523 X22 Y-41
N1524 X11 Y-34
N1525 G02 I-117 J-32 X-38 Y-124
N1526 G01 X-75 Y-60
N1527 X-138 Y202
N1528 X-49 Y-37
N1529 X153 Y-221
N1530 G02 I-509 J-284 X4 Y-561
N1531 G01 X-8 Y-45
N1532 X11 Y-49
N1533 X41 Y-71
N1534 X161 Y-243
N1535 G02 I-202 J-88 X-45 Y-243
N1536 G02 I-139 J172 X-262 Y-11
N1537 G01 X-94 Y75
N1538 X-168 Y138
N1539 X-41 Y22
N1540 X-45 Y11
N1541 X-49
N1542 X-135 Y-26
N1543 G02 I-85 J554 X-415 Y101
N1544 G01 X-176 Y172
N1545 X-41 Y-41
N1546 X176 Y-176
N1547 X-56 Y-56
N1548 G02 I-92 J82 X-183
N1549 G01 X-153 Y138
N1550 G02 I247 J203 X-30 Y363
N1551 G01 X4 Y45
N1552 X-11 Y49
N1553 X-19 Y41
N1554 G02 I1214 J661 X-168 Y640
N1555 G01 X4 Y19
N1556 X11 Y22
N1557 G02 I61 J-52 X138 Y-30
N1558 G01 X56 Y-172
N1559 G03 I1406 J492 X460 Y-659
N1560 G01 X79 Y-52
N1561 G03 I166 J273 X359 Y19
N1562 G01 X90 Y86
N1563 X187 Y-210
N1564 X45 Y41
N1565 X-187 Y206
N1566 X45 Y41
N1567 G03 I-225 J272 X37 Y509
N1568 M45
N1569 M83 T0 G03 X-51 Y-32 I-25 J-16
N1570 G01 G40 X25 Y16
N1571 G00 X1392 Y-800
N1572 G01 X-3 Y-30
N1573 M81 T0 G03 G41 X6 Y60 I3 J30
N1574 G03 I-35 J-328 X-284 Y-112
N1575 G02 I-139 J236 X-412 Y254
N1576 G01 X97 Y737
N1577 G02 I207 J-36 X240 Y172
N1578 G01 X41
N1579 X-78 Y-509
N1580 X60 Y-7
N1581 X79 Y509
N1582 X64 Y-8
N1583 G03 I17 J117 X127 Y75
N1584 G01 X183 Y501
N1585 G02 I75 J-30 X153 Y-8
N1586 G01 X4 Y-15
N1587 X124 Y-468
N1588 G03 I113 J30 X127 Y-86
N1589 G01 X52 Y4
N1590 X41 Y-505
N1591 X60 Y7
N1592 X-41 Y501
N1593 X56
N1594 G02 I30 J-172 X198 Y-124
N1595 G01 X19 Y-56
N1596 X8 Y-108
N1597 X34 Y-674
N1598 G02 I-272 J0 X-442 Y-213
N1599 G01 X-78 Y71
N1600 X-52 Y34
N1601 X-45 Y11
N1602 X-49 Y8
N1603 X-86 Y4
N1604 X-45
N1605 X26 Y681
N1606 X-60
N1607 X-26 Y-681
N1608 X-94 Y3
N1609 M45
N1610 M83 T0 G03 X-6 Y-60 I-3 J-30
N1611 G01 G40 X3 Y30
N1612 G00 X1534 Y1388
N1613 G01 X20 Y-22
N1614 M81 T0 G03 G41 X-40 Y45 I-20 J22
N1615 G03 I90 J-103 X45 Y-232
N1616 G02 I-4 J-154 X124 Y-240
N1617 G01 X-15 Y-142
N1618 Y-105
N1619 G03 I1332 J26 X124 Y-535
N1620 G02 I-80 J-23 X-138 Y-82
N1621 G01 X-30 Y34
N1622 X-56 Y78
N1623 X-71 Y120
N1624 X-37 Y79
N1625 X-56 Y146
N1626 X-30 Y101
N1627 X-22 Y112
N1628 X-15 Y116
N1629 X-4 Y60
N1630 G03 I-130 J-27 X-206 Y82
N1631 G02 I-46 J124 X-176 Y105
N1632 G03 I-147 J12 X-105 Y153
N1633 G01 X-150 Y15
N1634 X-11 Y8
N1635 X-4 Y11
N1636 Y22
N1637 X37 Y322
N1638 X580 Y-71
N1639 X8 Y60
N1640 X-580 Y71
N1641 X37 Y307
N1642 X8 Y34
N1643 X8 Y11
N1644 X11 Y4
N1645 X37
N1646 G03 I41 J138 X183 Y120
N1647 G02 I146 J-56 X116 Y97
N1648 G02 I7 J-149 X124 Y-56
N1649 G01 X41 Y-45
N1650 X30 Y-19
N1651 X79 Y-26
N1652 X127 Y-19
N1653 G03 I202 J1313 X674 Y71
N1654 G03 I-66 J178 X124 Y172
N1655 G02 I74 J-19 X146 Y4
N1656 G02 I-1209 J-193 X-19 Y-479
N1657 G01 X-22 Y-75
N1658 X-37 Y-112
N1659 X-38 Y-82
N1660 G02 I-65 J38 X-138 Y22
N1661 G01 X-15 Y67
N1662 G03 I-164 J-67 X-120 Y105
N1663 G03 I-411 J-1312 X-227 Y50
N1664 G01 X-21 Y3
N1665 G03 I-164 J-1366 X-254 Y7
N1666 G01 X-30 Y-15
N1667 G03 I38 J-62 X-11 Y-116
N1668 G01 X45 Y-41
N1669 G02 I-112 J-111 X-11 Y-232
N1670 G01 X-56 Y-45
N1671 M45
N1672 M83 T0 G03 X40 Y-45 I20 J-22
N1673 G01 G40 X-20 Y22
N1674 G00 X536 Y-323
N1675 G01 X-9 Y29
N1676 M81 T0 G03 G41 X19 Y-57 I9 J-29
N1677 G03 I-35 J107 X75 Y131
N1678 G01 X-15 Y75
N1679 X-22 Y82
N1680 G02 I86 J7 X52 Y86
N1681 G01 X34 Y11
N1682 X202 Y15
N1683 X56
N1684 G02 I10 J-100 X108 Y-124
N1685 G01 X-108 Y-299
N1686 X-41 Y-112
N1687 X-176 Y-15
N1688 X4 Y-60
N1689 X176 Y15
N1690 X191 Y-393
N1691 G02 I-91 J-40 X-101 Y-138
N1692 G01 X-183 Y-15
N1693 X-71
N1694 G02 I4 J101 X-90 Y138
N1695 G01 X26 Y120
N1696 G03 I-93 J7 X-94 Y101
N1697 G01 X-176
N1698 G02 I8 J178 Y355
N1699 G01 X153 Y26
N1700 M45
N1701 M83 T0 G03 X-19 Y57 I-9 J29
N1702 G01 G40 X9 Y-29
N1703 G00 X1113 Y-1610
N1704 G01 X12 Y28
N1705 M81 T0 G03 G41 X-23 Y-55 I-12 J-28
N1706 G02 I-146 J-352 X224 Y-442
N1707 G01 X-22 Y-56
N1708 X-19 Y-26
N1709 X-11 Y-19
N1710 X-15 Y-19
N1711 X-210 Y-161
N1712 X-415 Y539
N1713 X-49 Y-37
N1714 X415 Y-539
N1715 X-520 Y-400
N1716 G02 I-198 J284 X-513 Y138
N1717 G01 X-34 Y34
N1718 X-41 Y26
N1719 X-52 Y22
N1720 G02 I48 J270 X-191 Y135
N1721 G02 I726 J475 X-138 Y550
N1722 G01 X11 Y101
N1723 X26 Y116
N1724 G02 I117 J-22 X168 Y86
N1725 G03 I-5 J70 X64 Y86
N1726 G01 X-30 Y64
N1727 X-15 Y34
N1728 G02 I85 J33 X135 Y108
N1729 G01 X45 Y-22
N1730 X22 Y-8
N1731 G03 I19 J60 X82 Y64
N1732 G01 X-4 Y26
N1733 X-26 Y75
N1734 G02 I85 J25 X97 Y112
N1735 G02 I-9 J-113 X41 Y-11
N1736 G01 X11 Y-8
N1737 X15 Y-11
N1738 G03 I53 J75 X116 Y8
N1739 G01 X4 Y8
N1740 X15 Y34
N1741 Y26
N1742 X-19 Y71
N1743 X4 Y26
N1744 G02 I92 J-26 X172 Y26
N1745 G03 I81 J112 X217 Y135
N1746 G01 X-8 Y67
N1747 X273 Y11
N1748 X-4 Y60
N1749 X-284 Y-11
N1750 X-41 Y292
N1751 X-4 Y64
N1752 X277 Y-8
N1753 Y60
N1754 X-284 Y7
N1755 X-15 Y262
N1756 X-4 Y116
N1757 X284 Y-30
N1758 X8 Y56
N1759 X-292 Y34
N1760 X7 Y258
N1761 X11 Y127
N1762 X277 Y-60
N1763 X11 Y60
N1764 X-281 Y60
N1765 X26 Y217
N1766 X22 Y157
N1767 X266 Y-67
N1768 X15 Y56
N1769 X-269 Y67
N1770 X30 Y153
N1771 X52 Y206
N1772 X251 Y-82
N1773 X19 Y56
N1774 X-251 Y82
N1775 X41 Y157
N1776 G03 I-105 J19 X-52 Y112
N1777 G01 X-247 Y108
N1778 G02 I60 J111 X45 Y236
N1779 G01 X34
N1780 X38 Y-7
N1781 X224 Y-86
N1782 G03 I19 J76 X60 Y142
N1783 G01 X-64 Y34
N1784 X-172 Y86
N1785 G02 I60 J115 X131 Y224
N1786 G01 X157 Y-64
N1787 X26 Y-8
N1788 X19 Y-4
N1789 X19 Y-4
N1790 X4
N1791 X22 Y4
N1792 X30 Y15
N1793 X22 Y15
N1794 X22 Y26
N1795 X22 Y34
N1796 X352 Y-157
N1797 X-198 Y-449
N1798 X52 Y-26
N1799 X202 Y453
N1800 X45 Y-22
N1801 X90 Y-34
N1802 X116 Y-52
N1803 X4 Y-11
N1804 Y-26
N1805 X-86 Y-191
N1806 X-97 Y-228
N1807 X-8 Y-34
N1808 Y-11
N1809 X15 Y-34
N1810 X30 Y-22
N1811 X41 Y-30
N1812 G02 I-52 J-62 X-67 Y-142
N1813 G01 X-86 Y-4
N1814 G03 I19 J-77 X-26 Y-142
N1815 G01 X71 Y-49
N1816 X11 Y-8
N1817 G02 I-59 J-51 X-45 Y-127
N1818 G01 X-97 Y-8
N1819 X-22 Y-8
N1820 X-11 Y-8
N1821 G03 I64 J-65 X30 Y-150
N1822 G02 I-6 J-99 X94 Y-97
N1823 G02 I-78 J12 X-82 Y-67
N1824 G01 X-64 Y-8
N1825 G03 I8 J-80 X-11 Y-157
N1826 G01 X45 Y-15
N1827 G02 I-30 J-80 X-41 Y-165
N1828 G03 I-4 J-89 X-26 Y-176
N1829 G01 X37 Y-11
N1830 G02 I-26 J-81 X11 Y-157
N1831 G01 X-82 Y-19
N1832 G03 I37 J-80 X4 Y-161
N1833 G01 X82 Y-22
N1834 G02 I-41 J-78 X-11 Y-161
N1835 G03 I2 J-110 X-108 Y-105
N1836 G03 I79 J3 X67 Y-75
N1837 G01 X71 Y-15
N1838 G02 I-14 J-76 X52 Y-116
N1839 G01 X-26 Y-26
N1840 X-71 Y-41
N1841 G03 I44 J-69 X26 Y-150
N1842 G01 X138 Y-7
N1843 X172 Y11
N1844 G02 I-3 J-75 X37 Y-138
N1845 G01 X-45 Y-22
N1846 X-101 Y-30
N1847 X-49 Y-11
N1848 X-108 Y-15
N1849 X-101 Y-11
N1850 G03 I22 J-73 X-41 Y-116
N1851 G01 X22 Y-15
N1852 X56 Y-15
N1853 X120 Y-22
N1854 X112 Y-11
N1855 X105 Y-7
N1856 G02 I-7 J-75 X19 Y-146
N1857 G01 X-49 Y-11
N1858 X-131 Y-15
N1859 X-94 Y-4
N1860 X-86 Y4
N1861 X-108 Y11
N1862 G03 I-38 J-210 X-251 Y-232
N1863 G01 X15 Y-49
N1864 X15 Y-30
N1865 X34 Y-37
N1866 M45
N1867 M83 T0 G03 X23 Y55 I12 J28
N1868 G01 G40 X-12 Y-28
N1869 G00 X-4572 Y4171
N1870 G01 X8 Y-29
N1871 M81 T0 G03 G41 X-16 Y58 I-8 J29
N1872 G01 X-56 Y-15
N1873 X-64 Y224
N1874 X-60 Y-19
N1875 X97 Y-329
N1876 X26 Y-116
N1877 X15 Y-82
N1878 X15 Y-105
N1879 X8 Y-153
N1880 Y-131
N1881 X-11 Y-161
N1882 X-19 Y-120
N1883 X-30 Y-142
N1884 G02 I-130 J49 X-195 Y-75
N1885 G01 X-112 Y82
N1886 X-120 Y71
N1887 X-112 Y60
N1888 G03 I-93 J-247 X-337 Y-146
N1889 G03 I83 J-83 X-34 Y-97
N1890 G02 I257 J136 X-34 Y131
N1891 G01 X8 Y60
N1892 X15 Y34
N1893 X30 Y49
N1894 X8 Y34
N1895 G03 I-74 J7 X-94 Y79
N1896 G03 I19 J-194 X-176 Y-210
N1897 G03 I480 J37 X78 Y-228
N1898 G02 I119 J300 X221 Y606
N1899 G02 I-355 J-1901 X449 Y-142
N1900 G01 X105 Y-49
N1901 G03 I35 J95 X135 Y112
N1902 G01 X-4 Y165
N1903 X-15 Y161
N1904 X-26 Y142
N1905 X-150 Y599
N1906 G02 I188 J38 X142 Y224
N1907 G01 X30 Y8
N1908 X101 Y30
N1909 X34 Y8
N1910 G02 I26 J-187 X206 Y-131
N1911 G01 X60 Y-247
N1912 G02 I-161 J-19 X-135 Y-180
N1913 M45
N1914 M83 T0 G03 X16 Y-58 I8 J-29
N1915 G01 G40 X-8 Y29
N1916 G00 X1475 Y-1409
N1917 G01 X-21 Y21
N1918 M81 T0 G03 G41 X42 Y-43 I21 J-21
N1919 G03 I-942 J953 X389 Y1104
N1920 G02 I75 J3 X150 Y15
N1921 G01 X19 Y-79
N1922 X15 Y-71
N1923 G02 I-1291 J-232 X-748 Y-1426
N1924 G02 I-209 J655 X-326 Y-22
N1925 G01 X-34 Y-8
N1926 X-41 Y-26
N1927 X-45 Y-56
N1928 X-138 Y-172
N1929 X-30 Y-49
N1930 G02 I-165 J114 X-355 Y176
N1931 G01 X120 Y314
N1932 G03 I-165 J65 X-49 Y198
N1933 G02 I96 J113 X-34 Y41
N1934 G02 I523 J291 X-75 Y318
N1935 G01 X4 Y71
N1936 X8 Y86
N1937 X37 Y165
N1938 X49 Y131
N1939 X26 Y64
N1940 X71 Y135
N1941 X45 Y71
N1942 X67 Y90
N1943 G02 I1057 J-858 X718 Y460
N1944 G02 I23 J-64 X90 Y-71
N1945 G01 Y-11
N1946 X-8 Y-22
N1947 X-15 Y-19
N1948 X-127 Y-67
N1949 G03 I613 J-1127 X-490 Y-471
N1950 G01 X-64 Y-116
N1951 X-38 Y-82
N1952 X-41 Y-108
N1953 G03 I382 J-150 X49 Y-389
N1954 G01 X45 Y-52
N1955 X49 Y-38
N1956 X64 Y-37
N1957 X49 Y-26
N1958 X-138 Y-243
N1959 X52 Y-26
N1960 X138 Y240
N1961 X56 Y-34
N1962 G03 I217 J303 X486 Y45
N1963 M45
N1964 M83 T0 G03 X-42 Y43 I-21 J21
N1965 G01 G40 X21 Y-21
N1966 G00 X416 Y1293
N1967 G01 X24 Y-18
N1968 M81 T0 G03 G41 X-48 Y36 I-24 J18
N1969 G03 I1000 J-750 X-236 Y-561
N1970 G01 X-22 Y-146
N1971 X-8 Y-108
N1972 G02 I-78 J8 X-157 Y11
N1973 G02 I1807 J179 X49 Y632
N1974 G02 I1194 J-317 X318 Y554
N1975 G02 I374 J-490 X430 Y124
N1976 G03 I30 J161 X168 Y75
N1977 G01 X195 Y251
N1978 G02 I143 J-142 X340 Y-183
N1979 G01 X-120 Y-344
N1980 X-4 Y-45
N1981 X8 Y-37
N1982 X8 Y-22
N1983 X64 Y-90
N1984 X15 Y-19
N1985 G02 I-584 J-310 X-56 Y-707
N1986 G01 X-52 Y-82
N1987 X-60 Y-79
N1988 X-90 Y-101
N1989 X-75 Y-67
N1990 X-135 Y-108
N1991 X-94 Y-64
N1992 X-105 Y-64
N1993 X-56 Y-26
N1994 G02 I-38 J79 X-97 Y15
N1995 G02 I71 J50 X8 Y108
N1996 G01 X131 Y108
N1997 G03 I-873 J1052 X423 Y617
N1998 G03 I-272 J50 X-146 Y296
N1999 G01 X-108 Y56
N2000 X127 Y236
N2001 X-52 Y26
N2002 X-127 Y-236
N2003 X-75 Y37
N2004 G03 I-189 J-269 X-273 Y49
N2005 G01 X-45 Y-22
N2006 X-41 Y-26
N2007 X-49 Y-56
N2008 M45
N2009 M83 T0 G03 X48 Y-36 I24 J-18
N2010 G01 G40 X-24 Y18
N2011 G00 X1736 Y-389
N2012 G01 X24 Y-18
N2013 M81 T0 G03 G41 X-48 Y36 I-24 J18
N2014 G03 I86 J-65 X30 Y-157
N2015 G01 X153 Y-94
N2016 G02 I-80 J-163 X-131 Y-337
N2017 G01 X-120 Y52
N2018 X-75 Y34
N2019 G03 I-42 J-105 X-153 Y-90
N2020 G01 X-26 Y-131
N2021 G02 I-95 J29 X-146 Y-56
N2022 G01 X-112 Y60
N2023 X-86 Y41
N2024 X-60 Y34
N2025 X-19 Y19
N2026 G02 I79 J63 X4 Y131
N2027 G01 X15 Y19
N2028 X352 Y266
N2029 X153 Y-75
N2030 X26 Y52
N2031 X-157 Y79
N2032 X8 Y460
N2033 G02 I109 J-18 X183 Y64
N2034 G01 X228 Y-124
N2035 G02 I-45 J-81 X30 Y-135
N2036 G01 X-97 Y-112
N2037 M45
N2038 M83 T0 G03 X48 Y-36 I24 J-18
N2039 G01 G40 X-24 Y18
N2040 G00 X-2400 Y1402
N2041 G01 X30 Y3
N2042 M81 T0 G03 G41 X-60 Y-6 I-30 J-3
N2043 G03 I109 J11 X127 Y-97
N2044 G01 X191 Y49
N2045 X34 Y4
N2046 G02 I11 J-93 X105 Y-94
N2047 G01 Y-138
N2048 X-11 Y-329
N2049 G02 I-98 J11 X-112 Y-86
N2050 G01 X-37 Y8
N2051 X-210 Y108
N2052 X-224 Y120
N2053 X-67 Y37
N2054 X8 Y224
N2055 X-60
N2056 X-8 Y-224
N2057 X-524 Y-224
N2058 G02 I-33 J93 X-131 Y97
N2059 G01 Y71
N2060 X4 Y198
N2061 X8 Y183
N2062 X11 Y34
N2063 G02 I89 J-41 X120 Y52
N2064 G01 X116 Y-37
N2065 X82 Y-30
N2066 G03 I30 J97 X131 Y105
N2067 G01 X34 Y247
N2068 G02 I202 J-19 X404 Y-15
N2069 G01 X11 Y-262
N2070 M45
N2071 M83 T0 G03 X60 Y6 I30 J3
N2072 G01 G40 X-30 Y-3
N2073 G00 X625 Y48
N2074 G01 X-30 Y-5
N2075 M81 T0 G03 G41 X59 Y10 I30 J5
N2076 G03 I-112 J-19 X-131 Y94
N2077 G01 X-157 Y-52
N2078 G02 I-13 J117 X-131 Y116
N2079 G01 X4 Y153
N2080 X4 Y183
N2081 G02 I123 J-19 X176 Y94
N2082 G01 X423 Y-206
N2083 X-8 Y-202
N2084 X60 Y-4
N2085 X4 Y206
N2086 X445 Y187
N2087 G02 I45 J-101 X153 Y-82
N2088 G01 X4 Y-198
N2089 X-4 Y-146
N2090 G02 I-114 J2 X-142 Y-108
N2091 G01 X-150 Y52
N2092 G03 I-25 J-115 X-142 Y-108
N2093 G01 X-22 Y-206
N2094 G02 I-236 J8 X-71 Y-161
N2095 G02 I-116 J138 X-296 Y131
N2096 G01 X-4 Y71
N2097 X-15 Y187
N2098 M45
N2099 M83 T0 G03 X-59 Y-10 I-30 J-5
N2100 G01 G40 X30 Y5
N2101 G00 X1684 Y358
N2102 G01 X12 Y28
N2103 M81 T0 G03 G41 X-23 Y-55 I-12 J-28
N2104 G01 X45 Y-19
N2105 X49 Y-11
N2106 X45 Y-11
N2107 X22 Y8
N2108 Y45
N2109 G03 I-126 J-18 X-210 Y79
N2110 G01 X-11 Y-41
N2111 X15 Y-22
N2112 X45 Y-26
N2113 M45
N2114 M83 T0 G03 X23 Y55 I12 J28
N2115 G01 G40 X-12 Y-28
N2116 G00 X529 Y38
N2117 G01 X-28 Y9
N2118 M81 T0 G03 G41 X57 Y-19 I28 J-9
N2119 G01 X4 Y11
N2120 X4 Y8
N2121 X8 Y8
N2122 X8 Y4
N2123 X8 Y8
N2124 X8 Y4
N2125 X11 Y4
N2126 X22 Y11
N2127 X7 Y8
N2128 X11 Y8
N2129 X15 Y15
N2130 X11 Y8
N2131 X7 Y11
N2132 X8 Y8
N2133 X4 Y8
N2134 X7 Y8
N2135 X8 Y15
N2136 X4 Y11
N2137 Y19
N2138 X-4 Y11
N2139 X-8 Y15
N2140 X-11 Y11
N2141 X-8 Y4
N2142 X-11 Y4
N2143 X-8
N2144 X-8 Y4
N2145 X-11
N2146 X-15 Y-4
N2147 X-8
N2148 X-8 Y-4
N2149 X-11
N2150 X-22 Y-8
N2151 X-15
N2152 X-15 Y-4
N2153 X-15 Y-8
N2154 X-75 Y-19
N2155 X-11 Y-7
N2156 X-15 Y-4
N2157 X-56 Y-19
N2158 X-8 Y-8
N2159 X-15 Y-8
N2160 X-8
N2161 X-11 Y-4
N2162 X-8 Y-4
N2163 X-4 Y-4
N2164 X-8 Y-4
N2165 X-8
N2166 X-8 Y-4
N2167 X-30 Y-8
N2168 X-11
N2169 X-11 Y-4
N2170 X-11
N2171 X-8 Y-4
N2172 X-11 Y-4
N2173 X-8
N2174 X-8 Y-8
N2175 X-4 Y-7
N2176 Y-26
N2177 X4 Y-11
N2178 Y-11
N2179 X8 Y-15
N2180 Y-7
N2181 X4 Y-8
N2182 X4 Y-4
N2183 X15 Y-30
N2184 X8 Y-11
N2185 X4 Y-11
N2186 X8 Y-8
N2187 Y-11
N2188 X4 Y-11
N2189 Y-15
N2190 X4 Y-11
N2191 Y-8
N2192 X4 Y-7
N2193 Y-8
N2194 X4 Y-8
N2195 X7 Y-8
N2196 X22 Y-8
N2197 X37
N2198 X11 Y4
N2199 X26
N2200 X11 Y4
N2201 X15
N2202 X15 Y4
N2203 X11
N2204 X15 Y4
N2205 X15
N2206 X11 Y4
N2207 X11
N2208 X11 Y4
N2209 X11
N2210 X8 Y4
N2211 X11 Y4
N2212 X8
N2213 X11 Y7
N2214 X7 Y4
N2215 X15 Y15
N2216 Y7
N2217 X4 Y11
N2218 Y49
N2219 X-4 Y11
N2220 Y8
N2221 X-4 Y8
N2222 Y8
N2223 M45
N2224 M83 T0 G03 X-57 Y19 I-28 J9
N2225 G01 G40 X28 Y-9
N2226 G00 X453 Y72
N2227 G01 X-9 Y28
N2228 M81 T0 G03 G41 X19 Y-57 I9 J-28
N2229 G01 X22 Y7
N2230 X8 Y4
N2231 X11 Y8
N2232 X7 Y4
N2233 X11 Y8
N2234 X7 Y8
N2235 X11 Y8
N2236 X19 Y19
N2237 X8 Y11
N2238 X11 Y22
N2239 Y30
N2240 X-4 Y8
N2241 Y15
N2242 X-4 Y8
N2243 X-4 Y11
N2244 X-15 Y15
N2245 X-8 Y4
N2246 X-11 Y4
N2247 X-60
N2248 X-8 Y-4
N2249 X-7
N2250 X-8 Y-4
N2251 X-11 Y-4
N2252 X-7 Y-4
N2253 X-11 Y-4
N2254 X-7
N2255 X-30 Y-15
N2256 X-15 Y-15
N2257 X-4 Y-7
N2258 X-8 Y-8
N2259 X-4 Y-11
N2260 X-30 Y-30
N2261 X-4 Y-8
N2262 X-8 Y-4
N2263 X-8 Y-8
N2264 X-15 Y-8
N2265 X-8 Y-8
N2266 X-8 Y-15
N2267 X-4 Y-11
N2268 X-4 Y-8
N2269 Y-157
N2270 X4 Y-19
N2271 Y-41
N2272 X4 Y-8
N2273 Y-15
N2274 X4 Y-8
N2275 Y-8
N2276 X4 Y-7
N2277 X4 Y-4
N2278 X11 Y-8
N2279 X150
N2280 X8 Y4
N2281 X8 Y11
N2282 Y4
N2283 X4 Y11
N2284 X-7 Y15
N2285 X-8 Y22
N2286 X-4 Y8
N2287 X-4 Y11
N2288 X-8 Y15
N2289 X-4 Y11
N2290 X-4 Y8
N2291 Y11
N2292 X-8 Y15
N2293 Y7
N2294 X-4 Y8
N2295 X-4 Y15
N2296 Y34
N2297 X4 Y7
N2298 X4 Y11
N2299 X8 Y8
N2300 X11 Y7
N2301 X22 Y11
N2302 M45
N2303 M83 T0 G03 X-19 Y57 I-9 J28
N2304 G01 G40 X9 Y-28
N2305 G00 X712 Y-340
N2306 G01 X25 Y-16
N2307 M81 T0 G03 G41 X-50 Y32 I-25 J16
N2308 G03 I165 J-106 X4 Y-217
N2309 G02 I-172 J-146 X52 Y-172
N2310 G01 X-11 Y-86
N2311 X-505 Y52
N2312 X-8 Y-60
N2313 X505 Y-52
N2314 X-15 Y-112
N2315 X-15 Y-60
N2316 X-41 Y-49
N2317 G02 I-192 J172 X-288 Y-67
N2318 G03 I-131 J-565 X-423 Y-64
N2319 G01 X-82 Y-37
N2320 X-60 Y-26
N2321 X-94 Y-19
N2322 X-108 Y-22
N2323 X-82 Y-15
N2324 X-131 Y-15
N2325 X-90 Y-4
N2326 X-75 Y19
N2327 X-75 Y37
N2328 X-75 Y26
N2329 X-112
N2330 X-64 Y-15
N2331 X-60 Y-30
N2332 X-45 Y-11
N2333 X-75 Y-7
N2334 X-94 Y11
N2335 X-45 Y22
N2336 X-71 Y30
N2337 X-30 Y41
N2338 Y82
N2339 G02 I179 J39 X30 Y146
N2340 G03 I131 J-25 X34 Y-116
N2341 G01 X11 Y-15
N2342 X-4 Y22
N2343 G02 I344 J69 Y138
N2344 G02 I-663 J-330 X45 Y-112
N2345 G01 X11 Y-26
N2346 X8 Y7
N2347 Y11
N2348 G02 I180 J70 X4 Y150
N2349 G03 I296 J52 X64 Y-138
N2350 G01 X11 Y-19
N2351 X4 Y15
N2352 G02 I310 J56 X19 Y176
N2353 G03 I404 J6 X45 Y-180
N2354 G02 I378 J66 X15 Y191
N2355 G01 X11 Y30
N2356 G03 I500 J-5 X30 Y-176
N2357 G02 I681 J-72 X49 Y191
N2358 G03 I909 J96 X37 Y-180
N2359 G01 X11 Y26
N2360 G02 I357 J-53 X49 Y135
N2361 G03 I655 J93 X41 Y-153
N2362 G02 I287 J-8 X45 Y146
N2363 G03 I259 J-7 X34 Y-135
N2364 G02 I287 J-6 X41 Y142
N2365 G03 I262 J-2 X34 Y-131
N2366 G02 I288 J-4 X26 Y116
N2367 G03 I262 J18 X34 Y-112
N2368 G01 X15 Y67
N2369 X22 Y45
N2370 X11 Y-45
N2371 X11 Y-60
N2372 X26 Y101
N2373 X15 Y-34
N2374 X8 Y-41
N2375 X19 Y-37
N2376 X19 Y45
N2377 X8 Y45
N2378 X8 Y34
N2379 X22 Y-37
N2380 X15 Y-26
N2381 X30 Y-41
N2382 X7 Y-4
N2383 X8 Y15
N2384 X8 Y11
N2385 X4 Y4
N2386 X52 Y37
N2387 X30 Y60
N2388 X64 Y86
N2389 X56 Y41
N2390 X45 Y41
N2391 X-187 Y224
N2392 X-79 Y-19
N2393 X-41
N2394 X-8 Y-8
N2395 X-8 Y-11
N2396 X-8 Y-22
N2397 X-4 Y11
N2398 X-8 Y15
N2399 X-15 Y19
N2400 X-7 Y-56
N2401 G02 I225 J129 X-34 Y108
N2402 G03 I262 J-120 X-26 Y-116
N2403 G02 I224 J135 X-37 Y131
N2404 G03 I246 J-148 X-41 Y-142
N2405 G02 I229 J129 X-34 Y135
N2406 G03 I242 J-154 X-45 Y-146
N2407 G02 I228 J132 X-34 Y161
N2408 G01 X-19 Y30
N2409 G03 I560 J-210 X-38 Y-236
N2410 G02 I521 J222 X-45 Y240
N2411 G01 X-7 Y15
N2412 X-22 Y-26
N2413 G03 I494 J-162 X-22 Y-221
N2414 G02 I452 J241 X-60 Y224
N2415 G01 X-11 Y30
N2416 X-22 Y-41
N2417 G03 I356 J-145 X-26 Y-187
N2418 G02 I324 J199 X-56 Y191
N2419 G01 X-4 Y26
N2420 X-22 Y-26
N2421 G03 I240 J-160 X-49 Y-157
N2422 G02 I224 J131 X-34 Y161
N2423 G01 X-11 Y45
N2424 G03 I240 J-160 X-49 Y-157
N2425 G02 I225 J131 X-34 Y161
N2426 G03 I240 J-160 X-49 Y-157
N2427 G02 I224 J131 X-34 Y161
N2428 G03 I240 J-160 X-49 Y-157
N2429 G02 I224 J135 X-37 Y146
N2430 G01 X-34 Y-108
N2431 G02 I141 J104 X-34 Y94
N2432 G01 X-4 Y41
N2433 X-8 Y105
N2434 Y71
N2435 X4 Y60
N2436 X11 Y56
N2437 X15 Y22
N2438 X22 Y30
N2439 X52 Y37
N2440 X82 Y34
N2441 X97 Y34
N2442 X60 Y11
N2443 X75 Y26
N2444 X30 Y22
N2445 X45 Y22
N2446 X45 Y11
N2447 X41
N2448 X71 Y-4
N2449 X52 Y8
N2450 X41 Y11
N2451 X41 Y8
N2452 X210 Y-8
N2453 X348 Y41
N2454 X11
N2455 X56 Y11
N2456 X82
N2457 X97 Y-19
N2458 X45
N2459 X37 Y4
N2460 X34 Y11
N2461 G02 I212 J-303 X258 Y64
N2462 G01 X56 Y-19
N2463 X52 Y-30
N2464 G02 I-554 J-789 X348 Y-449
N2465 G02 I-198 J-40 X-56 Y-183
N2466 M45
N2467 M83 T0 G03 X50 Y-32 I25 J-16
N2468 G01 G40 X-25 Y16
N2469 M02
